src/assets/outline/UserRemove.svg

<svg width="24" height="24" viewBox="0 0 24 24"  xmlns="http://www.w3.org/2000/svg">
<path d="M12 12.75C8.83 12.75 6.25 10.17 6.25 7C6.25 3.83 8.83 1.25 12 1.25C15.17 1.25 17.75 3.83 17.75 7C17.75 10.17 15.17 12.75 12 12.75ZM12 2.75C9.66 2.75 7.75 4.66 7.75 7C7.75 9.34 9.66 11.25 12 11.25C14.34 11.25 16.25 9.34 16.25 7C16.25 4.66 14.34 2.75 12 2.75Z" />
<path d="M3.41016 22.75C3.00016 22.75 2.66016 22.41 2.66016 22C2.66016 17.73 6.85015 14.25 12.0002 14.25C13.0102 14.25 14.0001 14.38 14.9601 14.65C15.3601 14.76 15.5902 15.17 15.4802 15.57C15.3702 15.97 14.9601 16.2 14.5602 16.09C13.7402 15.86 12.8802 15.75 12.0002 15.75C7.68015 15.75 4.16016 18.55 4.16016 22C4.16016 22.41 3.82016 22.75 3.41016 22.75Z" />
<path d="M18 22.75C16.82 22.75 15.7 22.31 14.83 21.52C14.48 21.22 14.17 20.85 13.93 20.44C13.49 19.72 13.25 18.87 13.25 18C13.25 16.75 13.73 15.58 14.59 14.69C15.49 13.76 16.7 13.25 18 13.25C19.36 13.25 20.65 13.83 21.53 14.83C22.31 15.7 22.75 16.82 22.75 18C22.75 18.38 22.7 18.76 22.6 19.12C22.5 19.57 22.31 20.04 22.05 20.45C21.22 21.87 19.66 22.75 18 22.75ZM18 14.75C17.11 14.75 16.29 15.1 15.67 15.73C15.08 16.34 14.75 17.14 14.75 18C14.75 18.59 14.91 19.17 15.22 19.67C15.38 19.95 15.59 20.2 15.83 20.41C16.43 20.96 17.2 21.26 18 21.26C19.13 21.26 20.2 20.66 20.78 19.69C20.95 19.41 21.08 19.09 21.15 18.78C21.22 18.52 21.25 18.27 21.25 18.01C21.25 17.21 20.95 16.44 20.41 15.84C19.81 15.14 18.93 14.75 18 14.75Z" />
<path d="M16.9199 19.7999C16.7299 19.7999 16.5399 19.7299 16.3899 19.5799C16.0999 19.2899 16.0999 18.8099 16.3899 18.5199L18.4998 16.4099C18.7898 16.1199 19.2698 16.1199 19.5598 16.4099C19.8498 16.6999 19.8498 17.1799 19.5598 17.4699L17.4499 19.5799C17.2999 19.7299 17.1099 19.7999 16.9199 19.7999Z" />
<path d="M19.0601 19.8199C18.8701 19.8199 18.6801 19.7499 18.5301 19.5999L16.4201 17.4899C16.1301 17.1999 16.1301 16.7199 16.4201 16.4299C16.7101 16.1399 17.1901 16.1399 17.4801 16.4299L19.5901 18.5399C19.8801 18.8299 19.8801 19.3099 19.5901 19.5999C19.4401 19.7499 19.2501 19.8199 19.0601 19.8199Z" />
</svg>

<?xml version="1.0" encoding="UTF-8"?>
<svg width="24" height="24" viewBox="0 0 24 24" xmlns="http://www.w3.org/2000/svg">
 <path d="m12 12.75c-3.17 0-5.75-2.58-5.75-5.75s2.58-5.75 5.75-5.75 5.75 2.58 5.75 5.75-2.58 5.75-5.75 5.75zm0-10c-2.34 0-4.25 1.91-4.25 4.25s1.91 4.25 4.25 4.25 4.25-1.91 4.25-4.25-1.91-4.25-4.25-4.25z"/>
 <path d="m3.4102 22.75c-0.41 0-0.75-0.34-0.75-0.75 0-4.27 4.19-7.75 9.34-7.75 1.01 0 1.9999 0.13 2.9599 0.4 0.4 0.11 0.6301 0.52 0.5201 0.92s-0.5201 0.63-0.92 0.52c-0.82-0.23-1.68-0.34-2.56-0.34-4.32 0-7.84 2.8-7.84 6.25 0 0.41-0.34 0.75-0.75 0.75z"/>
 <path d="m18 22.75c-1.18 0-2.3-0.44-3.17-1.23-0.35-0.3-0.66-0.67-0.9-1.08-0.44-0.72-0.68-1.57-0.68-2.44 0-1.25 0.48-2.42 1.34-3.31 0.9-0.93 2.11-1.44 3.41-1.44 1.36 0 2.65 0.58 3.53 1.58 0.78 0.87 1.22 1.99 1.22 3.17 0 0.38-0.05 0.76-0.15 1.12-0.1 0.45-0.29 0.92-0.55 1.33-0.83 1.42-2.39 2.3-4.05 2.3zm0-8c-0.89 0-1.71 0.35-2.33 0.98-0.59 0.61-0.92 1.41-0.92 2.27 0 0.59 0.16 1.17 0.47 1.67 0.16 0.28 0.37 0.53 0.61 0.74 0.6 0.55 1.37 0.85 2.17 0.85 1.13 0 2.2-0.6 2.78-1.57 0.17-0.28 0.3-0.6 0.37-0.91 0.07-0.26 0.1-0.51 0.1-0.77 0-0.8-0.3-1.57-0.84-2.17-0.6-0.7-1.48-1.09-2.41-1.09z"/>
 <path d="m16.92 19.8c-0.19 0-0.38-0.07-0.53-0.22-0.29-0.29-0.29-0.77 0-1.06l2.1099-2.11c0.29-0.29 0.77-0.29 1.06 0s0.29 0.77 0 1.06l-2.1099 2.11c-0.15 0.15-0.34 0.22-0.53 0.22z"/>
 <path d="m19.06 19.82c-0.19 0-0.38-0.07-0.53-0.22l-2.11-2.11c-0.29-0.29-0.29-0.77 0-1.06s0.77-0.29 1.06 0l2.11 2.11c0.29 0.29 0.29 0.77 0 1.06-0.15 0.15-0.34 0.22-0.53 0.22z"/>
</svg>
